X:1
T:Title
%%score 1 2 3 4
L:1/8
Q:1/4=130
M:4/4
K:G
V:1 treble nm="Trumpet, Staff"
V:2 treble nm="French Horn, Staff-1"
V:3 treble nm="Trombone, Staff-2"
V:4 bass nm="Tuba, Staff-3"
V:1
 G2 A2 B2 B2 | B2 B2 B4 | A2 A2 A4 | G2 A2 B2 c2 | B2 A2 A4 | B2 c2 d2 B2 | e2 d2 c4 | B4 d2 d2 | %8
w: By~Traditional~Italian * * *||||||||
 G4 G2 A2 | B2 c2 d2 G2 | A4 G4- | G4 z4 |] %12
w: ||||
V:2
 G2 G2 G2 G2 | G2 G2 G4 | F2 E2 D4 | G2 G2 G2 G2 | G2 E2 F4 | G2 F2 D2 G2 | B2 B2 A4 | G4 G2 =F2 | %8
w: Je su,~ born~ to~|save~ the~ lost,~|At~ the~ cost~|Of~ thy~ life,~ re|ject ed,~ cross'd,~|Look~ up on~ us,~|make~ us~ low|ly,~ Pure~ as~|
 E4 E2 F2 | G2 F2 D2 G2 | G2 F2 G4- | G4 z4 |] %12
w: thou,~ Pure~ as~|thou~ art,~ strong~ and~|ho * ly.~||
V:3
 B,2 C2 D2 D2 | D2 D2 D4 | D2 D2 A,4 | B,2 C2 D2 E2 | D2 ^C2 D4 | D2 C2 B,2 D2 | G2 G2 E4 | %7
 E4[K:bass] A,2 B,2 | C4 B,2 D2 | D2 C2 B,2 B,2 | D4 B,4- | B,4 z4 |] %12
V:4
 G,2 G,2 G,2 G,2 | G,,2 A,,2 B,,2 C,2 | D,2 E,2 F,4 | G,2 G,2 G,2 G,2 | G,,2 A,,2 E,4 | %5
 G,2 A,2 B,2 G,2 | E,2 G,2 A,4 | E,4 D,2 D,2 | C,4 E,2 D,2 | G,2 A,2 B,2 E,2 | D,4 G,4- | G,4 z4 |] %12

